X: 51
T:A Jigg call'd Long time
M:6/4
L:1/4
S:Wright 1713
Z:p
K:GMin
g/f/|gdbe>dc|d>cBABG|F>GAD2g/f/|gdBe3|A3d>ed/c/|B2GG2||
B/c/|d>cBf>ed|gf=ea>ba/g/|f2dd2g/f/|gdBe3|A3d>ed/c/|B2GG2||
